src/svg/event/pyram.svg

<svg enable-background="new 0 0 500 500" height="500" viewBox="0 0 500 500" width="500" xmlns="http://www.w3.org/2000/svg"><g clip-rule="evenodd" fill-rule="evenodd"><path d="m250.011 71.163c20.532 35.558 40.61 70.329 60.917 105.497-40.682 0-80.999 0-121.824 0 20.215-35.015 40.325-69.848 60.907-105.497z"/><path d="m98.746 333.155c20.443 35.413 40.466 70.099 60.748 105.233-40.658 0-80.703 0-121.493 0 20.275-35.124 40.326-69.861 60.745-105.233z"/><path d="m401.275 333.155c20.408 35.349 40.43 70.036 60.725 105.19-40.625 0-80.668 0-121.439 0 20.216-35.027 40.267-69.765 60.714-105.19z"/><path d="m189.235 438.43c20.374-35.287 40.388-69.953 60.733-105.188 20.383 35.302 40.432 70.026 60.732 105.188-40.684 0-80.713 0-121.465 0z"/><path d="m189.222 193.807h121.481c-20.283 35.137-40.336 69.875-60.733 105.213-20.347-35.242-40.372-69.922-60.748-105.213z"/><path d="m264.949 307.287c20.256-35.079 40.248-69.701 60.699-105.119 20.459 35.437 40.449 70.061 60.688 105.119-40.684 0-80.705 0-121.387 0z"/><path d="m325.604 430.023c-20.439-35.398-40.402-69.979-60.631-105.014h121.252c-20.19 34.971-40.155 69.557-60.621 105.014z"/><path d="m235.007 307.329c-40.677 0-80.64 0-121.344 0 20.236-35.051 40.229-69.681 60.671-105.088 20.427 35.38 40.421 70.01 60.673 105.088z"/><path d="m113.753 324.944h121.242c-20.21 35.009-40.162 69.573-60.61 104.995-20.35-35.242-40.335-69.849-60.632-104.995z"/></g></svg>

<?xml version="1.0" encoding="utf-8"?>
<!-- Generator: Adobe Illustrator 16.0.0, SVG Export Plug-In . SVG Version: 6.00 Build 0)  -->
<!DOCTYPE svg PUBLIC "-//W3C//DTD SVG 1.1//EN" "http://www.w3.org/Graphics/SVG/1.1/DTD/svg11.dtd">
<svg version="1.1" id="Layer_1" xmlns="http://www.w3.org/2000/svg" xmlns:xlink="http://www.w3.org/1999/xlink" x="0px" y="0px"
	 width="500px" height="500px" viewBox="0 0 500 500" enable-background="new 0 0 500 500" xml:space="preserve">
<g>
	<path fill-rule="evenodd" clip-rule="evenodd" fill="#000000" d="M250.011,71.163c20.532,35.558,40.61,70.329,60.917,105.497
		c-40.682,0-80.999,0-121.824,0C209.319,141.645,229.429,106.812,250.011,71.163z"/>
	<path fill-rule="evenodd" clip-rule="evenodd" fill="#000000" d="M98.746,333.155c20.443,35.413,40.466,70.099,60.748,105.233
		c-40.658,0-80.703,0-121.493,0C58.276,403.264,78.327,368.527,98.746,333.155z"/>
	<path fill-rule="evenodd" clip-rule="evenodd" fill="#000000" d="M401.275,333.155c20.408,35.349,40.43,70.036,60.725,105.19
		c-40.625,0-80.668,0-121.439,0C360.777,403.318,380.828,368.58,401.275,333.155z"/>
	<path fill-rule="evenodd" clip-rule="evenodd" fill="#000000" d="M189.235,438.43c20.374-35.287,40.388-69.953,60.733-105.188
		c20.383,35.302,40.432,70.026,60.732,105.188C270.016,438.43,229.987,438.43,189.235,438.43z"/>
	<path fill-rule="evenodd" clip-rule="evenodd" fill="#000000" d="M189.222,193.807c40.762,0,80.747,0,121.481,0
		c-20.283,35.137-40.336,69.875-60.733,105.213C229.623,263.778,209.598,229.098,189.222,193.807z"/>
	<path fill-rule="evenodd" clip-rule="evenodd" fill="#000000" d="M264.949,307.287c20.256-35.079,40.248-69.701,60.699-105.119
		c20.459,35.437,40.449,70.061,60.688,105.119C345.652,307.287,305.631,307.287,264.949,307.287z"/>
	<path fill-rule="evenodd" clip-rule="evenodd" fill="#000000" d="M325.604,430.023c-20.439-35.398-40.402-69.979-60.631-105.014
		c40.615,0,80.635,0,121.252,0C366.035,359.98,346.07,394.566,325.604,430.023z"/>
	<path fill-rule="evenodd" clip-rule="evenodd" fill="#000000" d="M235.007,307.329c-40.677,0-80.64,0-121.344,0
		c20.236-35.051,40.229-69.681,60.671-105.088C194.761,237.621,214.755,272.251,235.007,307.329z"/>
	<path fill-rule="evenodd" clip-rule="evenodd" fill="#000000" d="M113.753,324.944c40.665,0,80.61,0,121.242,0
		c-20.21,35.009-40.162,69.573-60.61,104.995C154.035,394.697,134.05,360.09,113.753,324.944z"/>
</g>
</svg>
